-----BEGIN PGP PUBLIC KEY BLOCK-----

mQINBGp5RZkBEACyLuYuPUTXhiXRQZwPV5728bciFunpo8vIPEeS/Cl4QqAkhy7M
ufOB4EASb4iKc8rB0TcW3NMN4GPtnng7NGP89y+X5zk712rS2Fafuh85THFMURKz
xhcoR8xxKiaylV/6wO2OR+Fco3pkqmDyqbrjhH0Ig59cFwHjwLWZKUYze4ww0vZs
SvK0u7iW+Lydq7/8oxOSijSc30brfhaYfCjQ5hne6QtcGGzx/WiI58924yqNPKjL
3034popWoogs44UV0TlDhgjPcKOxTG7XvzEnKNlDCypK7SDVlT+fgifwbdTY/eje
cgHEySI55k8Bq7JWLSoQb6Hu5m61Bw0iaroS4CKAVWydbCKrp/LSOEGbf+92Tenv
oV03sunPVPWEanewvQMoZOiEuyOoJuJRG6vKF9xt2Ka13ZAwphU6tIUHlqI215ru
MHLX1TFzidObcMuBeUIVSICf7iPm5AW1Ls+8PyuWMqDOuWw/Z9b5DujWl4a93ieT
zhrLrUS5j+OkvfCBMX4m5uw5vkwp/yqrNqa9UBk7f+HipO5wRfzIAD3SJdVGUdaZ
i33e22grrTkKyRuqgCfWoTDf2wN/v3NMKVT2cSpn3v8Y7JRBG2DAxXT+UELUoVCn
2GY+iJ4Bnqjf97cn42nrIN2t8+NtxwZ+Q2JOmQRqgVwthjGCisE5+MdapQARAQAB
tB5CYWlxaXUgTWEgPG1hYmFpcWl1QGdtYWlsLmNvbT6JAm0EEwEIAFcWIQTFFJ/W
te98ISbx/Q/MGhLjSOFx2AUCanlFmRsUgAAAAAAEAA5tYW51MiwyLjUrMS4xMiwy
LDECGwMFCwkIBwICIgIGFQoJCAsCBBYCAwECHgcCF4AACgkQzBoS40jhcdipkw//
RZHje51cDd2Bwdb3g510sJ++29VQf+y40P2dOhlUU1NAjDjl0VprUjEZ8790TP7W
8PEGBiVBJygLqqDlEKxZMKLb0I2r4eguambfXlAoUsPBhcKSr+lSMHMrN9AhONdO
gfL6ZU9ivgtiEgRju2mqthsUsPiQxQI7IVNoMc0XdSJDInlhR7DgsOJDJqsGvDPD
2rvbK8+eVT3QzYxpa8bjTIEqVF413vNktiRUIQmRQs8gDOjTS/gBcPCdNGXVoizJ
uaUbDX5XnBMkFMMFuhhfWdx7xywNXrSuMu+wyUMQK6bx7eTHEmOBpQeE/zKJ6yw0
dET0Nf33lf63rc9pdpH2PoN9DL6EHvpQApG4UkQ/FI1CyxeqHgKr+tOFRBgNSzBY
UTpAlFei9Tr2sr4vLElF1VHCPqMkWnfbWjVEBJEY1HwZwbDW47lav/CbPHGKfdFL
/MibCthhF4Cczt/QUfZQL6qUisPApB6O9aFnWxJduBFKqtf4p2WJi/+Y5hetksNn
DWdNhirSbdsRdHlzAK7s9GR6N/EydGSeD9Gky/KY5cnFAujemC+2V4Zw8k7pXKU5
t4ou2GB50xnjAHe/QomGwQV4MiirAtceKVh2rNwU2oQjtnU4QBEwQWbUkkXL2/nD
CauavXyhRI3kzIoNMGsN9N6z6xdIOgU68ciwavqeYpa5Ag0EanlFmQEQAOVDuQTD
Nu1mpjXun1iLxsFH41ttR3Y61vTohXfGfawyaWqtldffKjfCDVxgHH3ChqpPMe2k
NwPFe/3fvWiOGo2up2JPI3Sfn/cIrVFcOgZVtpNhW6Ue1ZwuFkPpi5UynlrRpw4X
re/E+cvj8Jsy8W2eRta6hXpd8hQNib8TSGOtPq1EtctFEc2wODt6Uo+5j/cuNs9F
l8KKHjKRUCb5uVo+E7zhI+DtGMjtFC5zbxPmVc3K1rO3+yWMJ5s1zxg3G5sfdoLt
ew1GEfewL+O89uUYJldhAw8NK0aetQWPPI7+mTahcXJpzaqnji+6lqiODlWhb4ql
BooBMPOrZhZNyfyqv2dMIKgSqaCAxJ844hHyhlYFzsyWCJEGu2n+VjC6aUFf5Ti9
2vNt/zHng2D5x48hKYCPMSFJUkQm3vLTTS2w1jZwwZSficJ1UewqSNgJl+hkKh6K
40BQ0cXAHmB35a52vIkp4DqymmpcnZuJNPg1FA+9Keq2JI8LuTs+kPNXtk9NoZT3
pY2cVTDNs9Bn7p8Vpd8x/Qn6cfac0/AhEv1LFyGkLCUW0ZrU6zymX5HO2eeXDty1
ikmRfrEZmJUm9lqnTcWKydwPaSXzmbpniQGNJNc4W55LxdTpvQDZ9F3z2BR3z0Ug
ofV1SJtSO3i7Lpkkn7UKl3rMTikyo6faxlsBABEBAAGJAlIEGAEIADwWIQTFFJ/W
te98ISbx/Q/MGhLjSOFx2AUCanlFmRsUgAAAAAAEAA5tYW51MiwyLjUrMS4xMiwy
LDECGwwACgkQzBoS40jhcdiEOA/9E+smIDpVMepzghLHRz7YR3r3Z1/7el37luZA
1RYDDB6bGGNTgsKahu4WaWCimL02QhYO7wCG02fNrrA5tKfC+KP8Ou1kfqN8rsxB
Pv7mhaCuKWpwJD5Z9GhQo07D8gvtgRd6AIV9ak4fbg35On+bWXOpcORY3HnckyQT
jIGtSgXkYGLOJ6bBtdGWyY+adnL9Qr5QDb+pX9n2e7OAKjkikS/zfaPkcOG68fnk
YtC17cOT68AhVPORh9J/mdBM+BGgO2nAQCXkBEztclnnmdnyo0NbPAsIsWWCzBhf
5zkhO6p1oQHNrp5g6GKqTNinhQUNLQdngVOIhE+1ZkoNvxzBw8O6WF/GmUEdNn1c
I7LYTi8fAHbwKjZUAHNftzZjANhWFLT1VXlJyYOKckMzZsCLyWSPMiwEemZErOKi
j1Q6+Mw12l/VSpyCdo8v+LnY9z+JQyWoSM0ewJ444PNEzB8UB8RJ5FR1ukEp0uJc
SqmOhao2Fbog5N5cn3vvYAWLnvvAbDe+WE7g/NJgwjUolo3QoYb525FDSYEiqQHM
ZGetecPDoMbHQnDw3RPkt+/11X+vnFfmMdjgNQEAGWf99GSZfBEisWcgOKcL3/eK
bpTAQEvboHTk9LRcGElySxEkIJbS0mscl/7WSg2hudaMbJSVRt88LC6rGfrL1Z8C
XGiOWh4=
=ld/B
-----END PGP PUBLIC KEY BLOCK-----
